X:1
T: Loch Long
C:
R:Strathspey
Q: 128
K:A
M:4/4
L:1/16
|:Ee3 e3c B3c A4|E3A F3A E3A F3A|Ee3 e3c B3c A3B|c3F AGF^E F6 =E2|
Ee3 e3c B3c A4|E3A F3A E3A F3A|Ee3 e3c B3c A3B|c3A cBAG A6 c2|
ea3 a3g f3e c3d|e3A c3A e3A c3A|ea3 a3g f3e c3d|d3B dcBA GB3 B3e|
ea3 a3g f3e c3d|e3A c3A e3A c3A|d3e f3g a3e c3A|e3A cBAG A8:|
